ix/ranking-1_outline.svg

<svg viewBox="0 0 24 24" fill="none" xmlns="http://www.w3.org/2000/svg" height="1em" width="1em">
  <path d="M8.67 22.75H2C1.59 22.75 1.25 22.41 1.25 22V16C1.25 14.48 2.48 13.25 4 13.25H8.67C9.08 13.25 9.42 13.59 9.42 14V22C9.42 22.41 9.08 22.75 8.67 22.75ZM2.75 21.25H7.92V14.75H4C3.31 14.75 2.75 15.31 2.75 16V21.25Z" fill="#292D32"/>
  <path d="M15.3302 22.75H8.66016C8.25016 22.75 7.91016 22.41 7.91016 22V12C7.91016 10.48 9.14016 9.25 10.6602 9.25H13.3302C14.8502 9.25 16.0802 10.48 16.0802 12V22C16.0802 22.41 15.7502 22.75 15.3302 22.75ZM9.42015 21.25H14.5902V12C14.5902 11.31 14.0302 10.75 13.3402 10.75H10.6702C9.98015 10.75 9.42015 11.31 9.42015 12V21.25Z" fill="#292D32"/>
  <path d="M22.0001 22.75H15.3301C14.9201 22.75 14.5801 22.41 14.5801 22V17C14.5801 16.59 14.9201 16.25 15.3301 16.25H20.0001C21.5201 16.25 22.7501 17.48 22.7501 19V22C22.7501 22.41 22.4101 22.75 22.0001 22.75ZM16.0801 21.25H21.2501V19C21.2501 18.31 20.6901 17.75 20.0001 17.75H16.0801V21.25Z" fill="#292D32"/>
  <path d="M13.6989 8.34999C13.4589 8.34999 13.1589 8.27997 12.8189 8.07997L11.9989 7.58998L11.1889 8.06999C10.3689 8.55999 9.82892 8.26998 9.62892 8.12998C9.42892 7.98998 8.99891 7.54998 9.20891 6.62998L9.39892 5.79997L8.71892 5.11997C8.29892 4.69997 8.14891 4.19997 8.29891 3.73997C8.44891 3.27997 8.85891 2.95996 9.43891 2.85996L10.3089 2.70997L10.7989 1.72999C11.3389 0.65999 12.6489 0.65999 13.1789 1.72999L13.6689 2.70997L14.5389 2.85996C15.1189 2.95996 15.5389 3.27997 15.6789 3.73997C15.8289 4.19997 15.6689 4.69997 15.2589 5.11997L14.5789 5.79997L14.7689 6.62998C14.9789 7.55998 14.5489 7.98999 14.3489 8.13999C14.2589 8.21999 14.0289 8.34999 13.6989 8.34999ZM11.9989 6.07997C12.2389 6.07997 12.4789 6.13999 12.6789 6.25999L13.2389 6.58998L13.1189 6.04997C13.0189 5.62997 13.1689 5.11998 13.4789 4.80998L13.9889 4.29997L13.3589 4.18998C12.9589 4.11998 12.5689 3.82998 12.3889 3.46998L11.9989 2.71998L11.6189 3.46998C11.4389 3.82998 11.0489 4.11998 10.6489 4.18998L10.0189 4.28999L10.5289 4.79997C10.8389 5.10997 10.9789 5.61999 10.8889 6.03999L10.7689 6.57997L11.3289 6.24998C11.5189 6.12998 11.7589 6.07997 11.9989 6.07997Z" fill="#292D32"/>
</svg>

<svg viewBox="0 0 24 24" fill="none" xmlns="http://www.w3.org/2000/svg" height="1em" width="1em">
  <path d="M8.67 22.75H2c-.41 0-.75-.34-.75-.75v-6c0-1.52 1.23-2.75 2.75-2.75h4.67c.41 0 .75.34.75.75v8c0 .41-.34.75-.75.75Zm-5.92-1.5h5.17v-6.5H4c-.69 0-1.25.56-1.25 1.25v5.25Z" fill="#292D32"/>
  <path d="M15.33 22.75H8.66c-.41 0-.75-.34-.75-.75V12c0-1.52 1.23-2.75 2.75-2.75h2.67c1.52 0 2.75 1.23 2.75 2.75v10c0 .41-.33.75-.75.75Zm-5.91-1.5h5.17V12c0-.69-.56-1.25-1.25-1.25h-2.67c-.69 0-1.25.56-1.25 1.25v9.25Z" fill="#292D32"/>
  <path d="M22 22.75h-6.67c-.41 0-.75-.34-.75-.75v-5c0-.41.34-.75.75-.75H20c1.52 0 2.75 1.23 2.75 2.75v3c0 .41-.34.75-.75.75Zm-5.92-1.5h5.17V19c0-.69-.56-1.25-1.25-1.25h-3.92v3.5Zm-2.381-12.9c-.24 0-.54-.07-.88-.27l-.82-.49-.81.48c-.82.49-1.36.2-1.56.06-.2-.14-.63-.58-.42-1.5l.19-.83-.68-.68c-.42-.42-.57-.92-.42-1.38.15-.46.56-.78 1.14-.88l.87-.15.49-.98c.54-1.07 1.85-1.07 2.38 0l.49.98.87.15c.58.1 1 .42 1.14.88.15.46-.01.96-.42 1.38l-.68.68.19.83c.21.93-.22 1.36-.42 1.51-.09.08-.32.21-.65.21Zm-1.7-2.27c.24 0 .48.06.68.18l.56.33-.12-.54c-.1-.42.05-.93.36-1.24l.51-.51-.63-.11c-.4-.07-.79-.36-.97-.72l-.39-.75-.38.75c-.18.36-.57.65-.97.72l-.63.1.51.51c.31.31.45.82.36 1.24l-.12.54.56-.33c.19-.12.43-.17.67-.17Z" fill="#292D32"/>
</svg>
